X:1
T:Picnic at the River Jordan
C: Sarah Gowan, August 2007
R:Reel
M:4/4
K:Em
"Em"e2B2 EGBc|"Bm7"e2 B4 AB|"C"cBAB "D"A2G2|"Em7"E2G2B2d2|
"Em"e2B2 EGBc|"G"e2 B4 gf|"Bm7"e2B2 "F#m"AGF2|1"Am7"E2A2A2d2:|2"Am7"E2A2A2D2||
"Em"E2FG AG F2|"Am7"E2A4A2|"D"F2A4A2|"G"G2B4GF|
"Em"E2FG AG F2|"Am7"E2A4A2|"G"B2AG FE D2|1"Am7"E2A2A2GF:|2"Am7"E2A2A2z2|]
